X:740
T:New York Times - 2 parts
C:Colin Hume, 1997
H:For Linda Wolfe, who wrote a wonderful article about English Country Dancing in The New York Times.
H:This dance is not affiliated with, or endorsed by, The New York Times.
L:1/4
M:2/2
R:Reel
S:Colin Hume's website,  colinhume.com  - chords can also be printed below the stave.
Q:1/2=82
K:C
P:A
V:1
%%MIDI program 68       % Oboe
%%MIDI chordprog 45     % Pizzicato Strings
%%MIDI bassprog 42      % Cello
%%MIDI control 10 127   % Right speaker
|: "C"G2 "/"Ee | "Dm"d2 "/"c2 | "G7"cB "/"c3/d/ | "Am"e2 "/"c2 |\
"F"c2 "/"Af | "Dm"e2 "/"d2 | "G"cB "/"c3/d/ |1 "C"e4 :|2 "A7"e4 |
V:2
%%MIDI program 71       % Clarinet
%%MIDI gchordoff
%%MIDI control 10 0     % Left speaker
|: "C"E2 "/"CG | "Dm"F2 "/"E2 | "G7"FG "/"A3/B/ | "Am"c2 "/"A2 |\
"F"A2 "/"FA | "Dm"G2 "/"F2 | "G"ED "/"E3/F/ |1 "C"G4 :|2 "A7"G4 |
P:B
V:1
|: "Dm"fa "/"gf | "G7"e2 "/"d2 | "C"eg "/"fe | "A7"d2 "/"^c2 |\
"Dm"de "/"fA | "G7"B=c "/"d3/F/ | "C"EF "/"GC |1 "G"D2- "/"De :|2 "G"D2- "/"DE |
V:2
|: "Dm"df "/"ed | "G7"c2 "/"B2 | "C"ce "/"dc | "A7"B2 "/"A2 |\
"Dm"FG "/"AF | "G7"GA "/"B3/D/ | "C"CD "/"EA, |1 "G"B,2- "/"B,c :|2 "G"B,2- "/"B,C |
P:C
V:1
"Dm7"F2 "/"GA | "C/G"e2 "G7"d2 | "C"c4 | "Dm"A2 "G"B2 |]\
"C Last time"c4 |]
V:2
"Dm7"D2 "/"EF | "C/G"G2 "G7"F2 | "C"E4 | "Dm"C2 "G"D2 |]\
"C Last time"E4 |]

